X:4516
T:My Lord of Sherborne's Jig
O:england
C:
S:Bacon (MDT)
N:
A:Sherborne
R:Jig
P:A/2.A$^2$(B$^2$A$^2$)$^4$
K:G
Q:C3=100
P:A
|: D | G2 d BAG | c2 e ABc | d2 G cAF | G3 G2 :|
M:3/4
P:B
z |\
g2 f2 e2 | d3 c B2 | e2 d2 c2 | B3 A G2 |\
g2 f2 e2 | d3 c B2 | cdecAF   | G4   G  ||
M:6/8


